X:441
T: Mai huangli
N: C2058
O: China, Anhui Huoqiu
S: III, 556]
R: Xiaodiao]
M: 2/4
L: 1/16
K: G
D4E2G2 | D4E4 | E2A2A2E2 | D2D2E4
G4A4 | B3AG4 | E2A4E2 | D2B,2D2D2
E2EDE2G2 | A3GEDE2 | D8
E2DEGAGE | D2B,2D2D2
E2D2E2G2 | ABAGEDE2 | D8

